suite-common/icons/assets/icons/minus.svg

<svg xmlns="http://www.w3.org/2000/svg" xml:space="preserve" fill="none" viewBox="0 0 16 16">
  <path fill="#000" fill-rule="evenodd" d="M2.229 7.307c-.381.149-.579.621-.414.986a.82.82 0 0 0 .418.401c.14.052.217.053 5.767.053s5.627-.001 5.767-.053a.85.85 0 0 0 .407-.374.88.88 0 0 0 .025-.579.8.8 0 0 0-.43-.433c-.143-.054-.179-.055-5.777-.053-5.493.001-5.635.002-5.763.052"/>
</svg>

<svg xmlns="http://www.w3.org/2000/svg" xml:space="preserve" fill="none" viewBox="0 0 16 16"><path d="M2.229 7.307 C 1.848 7.456,1.650 7.928,1.815 8.293 C 1.893 8.466,2.066 8.631,2.233 8.694 C 2.373 8.746,2.450 8.747,8.000 8.747 C 13.550 8.747,13.627 8.746,13.767 8.694 C 13.921 8.636,14.096 8.475,14.174 8.320 C 14.246 8.179,14.258 7.894,14.199 7.741 C 14.130 7.559,13.946 7.373,13.769 7.308 C 13.626 7.254,13.590 7.253,7.992 7.255 C 2.499 7.256,2.357 7.257,2.229 7.307 " stroke="none" fill-rule="evenodd" fill="black"></path></svg>
